X:1
T:Jolly Robin
C:THE MACHINE
M:C|
L:1/8
K:Bm
DFfF BcFE | dFBA Aeea | bB(3 DDE Bcfe | fgaf eAce | dFB,F f/f/f bb | BBbb edAa | BFBc (3 beBB,A, | fgaf eAce | dDBc DEDd | d/d/d bd ACc/c/c  | FDB,/B,/B,  FFBB | fgaf eAce | BABB bddd | BcbB c/c/c (3 AAB | B,A,DE deBf | fgaf eAce | FfFB B/B/B fB | D/D/D B,/B,/B,  cAeA | dFB,A, DDB,C | fgaf eAce | ffBb BAdD | BFd/d/d  aAac | ddbB Bdbb | fgaf eAce | bbdd BAfb | fffb aced | bfB/B/B  f/f/f ff | fgaf eAce | BBbf dbdc | ddfB ecee | fdfe debB | fgaf eAce | (3 defB/B/B  fb(3 fgb | f/f/f DD A/A/A ED | (3 deffB (3 fff(3 dde | fgaf eAce | BAfe (3 bgfBB | DFfe aAEc | dcBB Ddf/f/f  | fgaf eAce | BbBc BdFf | dbdc Aaaa | d/d/d BF deFD | fgaf eAce | BABB, FGFB | bdBB edac | Ffd/d/d  fbd/d/d  | fgaf eAce | 